build/svg/cmd/lc_sbanativesql.svg

<?xml version="1.0" encoding="UTF-8" standalone="no"?>
<svg
   xmlns:dc="http://purl.org/dc/elements/1.1/"
   xmlns:cc="http://creativecommons.org/ns#"
   xmlns:rdf="http://www.w3.org/1999/02/22-rdf-syntax-ns#"
   xmlns:svg="http://www.w3.org/2000/svg"
   xmlns="http://www.w3.org/2000/svg"
   xmlns:sodipodi="http://sodipodi.sourceforge.net/DTD/sodipodi-0.dtd"
   xmlns:inkscape="http://www.inkscape.org/namespaces/inkscape"
   viewBox="0 0 24 24"
   version="1.1"
   id="svg4"
   sodipodi:docname="lc_sbanativesql.svg"
   inkscape:export-filename="/home/jupiter007/Libreoffice yaru theme fullcolor/build/cmd/lc_sbanativesql.png"
   inkscape:export-xdpi="96"
   inkscape:export-ydpi="96"
   inkscape:version="0.92.5 (2060ec1f9f, 2020-04-08)">
  <metadata
     id="metadata10">
    <rdf:RDF>
      <cc:Work
         rdf:about="">
        <dc:format>image/svg+xml</dc:format>
        <dc:type
           rdf:resource="http://purl.org/dc/dcmitype/StillImage" />
      </cc:Work>
    </rdf:RDF>
  </metadata>
  <defs
     id="defs8" />
  <sodipodi:namedview
     pagecolor="#ffffff"
     bordercolor="#666666"
     borderopacity="1"
     objecttolerance="10"
     gridtolerance="10"
     guidetolerance="10"
     inkscape:pageopacity="0"
     inkscape:pageshadow="2"
     inkscape:window-width="1920"
     inkscape:window-height="1011"
     id="namedview6"
     showgrid="true"
     inkscape:zoom="19.666667"
     inkscape:cx="3.1949006"
     inkscape:cy="8.2536026"
     inkscape:window-x="0"
     inkscape:window-y="32"
     inkscape:window-maximized="1"
     inkscape:current-layer="svg4">
    <inkscape:grid
       type="xygrid"
       id="grid825" />
  </sodipodi:namedview>
  <path
     style="fill:#f2cbf8;fill-opacity:1"
     id="path819"
     d="M 12,4 C 7.581722,4 4,4.8954258 4,6 v 4 8 c 0,1.1046 3.581722,2 8,2 4.418278,0 8,-0.8954 8,-2 V 10 6 C 20,4.8954258 16.418278,4 12,4 Z"
     inkscape:connector-curvature="0"
     sodipodi:nodetypes="sscssscss" />
  <path
     inkscape:connector-curvature="0"
     d="M 12,4 C 7.581722,4 4,4.8954258 4,6 v 4 8 c 0,1.1046 3.581722,2 8,2 4.418278,0 8,-0.8954 8,-2 V 10 6 C 20,4.8954258 16.418278,4 12,4 Z m 0,1 c 3.865993,0 7,0.4477153 7,1 0,0.5522847 -3.134007,1 -7,1 C 8.134007,7 5,6.5522847 5,6 5,5.4477153 8.134007,5 12,5 Z M 5,6.9375 C 6.352956,7.5624199 8.958076,8 12,8 15.041924,8 17.647043,7.5624199 19,6.9375 V 10 c 0,0.5523 -3.134007,1 -7,1 C 8.134007,11 5,10.5523 5,10 V 9.0625 Z m 0,4 C 6.352956,11.562421 8.958076,12 12,12 c 3.041924,0 5.647043,-0.437579 7,-1.0625 V 14 c 0,0.5523 -3.134007,1 -7,1 -3.865993,0 -7,-0.4477 -7,-1 z m 0,4 C 6.352956,15.562421 8.958076,16 12,16 c 3.041924,0 5.647043,-0.437579 7,-1.0625 V 18 c 0,0.5523 -3.134007,1 -7,1 -3.865993,0 -7,-0.4477 -7,-1 z"
     id="path2"
     style="fill:#8e03a3;fill-opacity:1" />
  <path
     sodipodi:nodetypes="ccccccccc"
     inkscape:connector-curvature="0"
     id="path834"
     d="M 3.75736,10.249548 2.343146,11.663761 5.1715736,14.492188 2.343146,17.320615 3.75736,18.734828 7.2928939,15.199294 8.0000007,14.492188 7.2928939,13.78508 Z"
     style="opacity:0.6;fill:#000000;fill-opacity:1;stroke:#000000;stroke-width:2;stroke-linejoin:round;stroke-miterlimit:4;stroke-dasharray:none" />
  <rect
     y="19"
     x="7.0000005"
     height="2"
     width="7"
     id="rect836"
     style="opacity:0.6;fill:#000000;fill-opacity:1;stroke:#000000;stroke-width:2;stroke-linejoin:round;stroke-miterlimit:4;stroke-dasharray:none" />
  <path
     style="opacity:1;fill:#ffffff;fill-opacity:1;stroke:none;stroke-width:2;stroke-linejoin:round;stroke-miterlimit:4;stroke-dasharray:none"
     d="M 3.75736,10.249548 2.343146,11.663761 5.1715736,14.492188 2.343146,17.320615 3.75736,18.734828 7.2928939,15.199294 8.0000007,14.492188 7.2928939,13.78508 Z"
     id="rect827"
     inkscape:connector-curvature="0"
     sodipodi:nodetypes="ccccccccc" />
  <rect
     style="opacity:1;fill:#ffffff;fill-opacity:1;stroke:none;stroke-width:2;stroke-linejoin:round;stroke-miterlimit:4;stroke-dasharray:none"
     id="rect832"
     width="7"
     height="2"
     x="7.0000005"
     y="19" />
</svg>

<svg xmlns="http://www.w3.org/2000/svg" viewBox="0 0 24 24"><path d="M12 4c-4.418 0-8 .895-8 2v12c0 1.105 3.582 2 8 2s8-.895 8-2V6c0-1.105-3.582-2-8-2z" fill="#f2cbf8"/><path d="M12 4c-4.418 0-8 .895-8 2v12c0 1.105 3.582 2 8 2s8-.895 8-2V6c0-1.105-3.582-2-8-2zm0 1c3.866 0 7 .448 7 1s-3.134 1-7 1-7-.448-7-1 3.134-1 7-1zM5 6.938C6.353 7.561 8.958 8 12 8s5.647-.438 7-1.063V10c0 .552-3.134 1-7 1s-7-.448-7-1v-.938zm0 4C6.353 11.562 8.958 12 12 12s5.647-.438 7-1.063V14c0 .552-3.134 1-7 1s-7-.448-7-1zm0 4C6.353 15.562 8.958 16 12 16s5.647-.438 7-1.063V18c0 .552-3.134 1-7 1s-7-.448-7-1z" fill="#8e03a3"/><path d="M3.757 10.25l-1.414 1.414 2.829 2.828-2.829 2.829 1.414 1.414 3.536-3.536.707-.707-.707-.707zM7 19h7v2H7z" opacity=".6" stroke="#000" stroke-width="2" stroke-linejoin="round"/><path d="M3.757 10.25l-1.414 1.414 2.829 2.828-2.829 2.829 1.414 1.414 3.536-3.536.707-.707-.707-.707zM7 19h7v2H7z" fill="#fff"/></svg>
